X:1
T:Blessed Infancy, 86.866
T:Blessed Infancy, 86.866
T:A Compilation of Genuine Church Music, 1835
T:Public Domain Courtesy of the Cyber Hymnal™
C:A Compilation of Genuine Church Music, 1835
Z:Public Domain
Z:Courtesy of the Cyber Hymnal™
%%score ( 1 2 ) ( 3 4 )
L:1/8
Q:1/4=108
M:4/4
K:G
V:1 treble 
V:2 treble 
V:3 bass 
V:4 bass 
V:1
 G2 [GB]2 G2 [Dd]2 | [GB]2 [Ac][GB] [FA]2 G2 | [Gd]2 [GB]2 [Dg]2 [Df][Ee] | [Fd][G^c] [Fd]6 | %4
 [Bd]2 [Bg]2 [GB][Bd] [Ae]2- | [Ae][Bd] [Ac]2 [GB]2 [FA]2 | [FA]2 [GB][DG] Bd dc | %7
 [Ec][GB] !fermata!BA [Gd]2 ed | gd [Ac][GB] [FA]2 !fermata!G2 |] %9
V:2
 G2 G2 x4 | x6 G2 | x8 | x8 | x8 | x8 | x4 D2 D2 | x2 F2 x G2 x | G2 x3 G2 x |] %9
V:3
 [G,B,]2 [G,D]2 [G,B,]2 [D,A,]2 | [G,D]2 [C,E]2 (DC) [G,,B,]2 | (B,C) [G,D]2 [G,B,]2 A,G, | %3
 A,B, [D,A,]6 | [G,B,]2 [G,D]2 DC C2- | C[B,D] [A,E]2 [G,D]2 [D,D]2 | [D,D]2 [G,B,]2 G,2 B,C/D/ | %7
 [A,E][G,D] !fermata![D,D]2 [G,B,]2 CB, | G,B, [C,E]2 (DC) !fermata![G,,B,]2 |] %9
V:4
 x8 | x4 D,2 x2 | G,2 x3 A,2 x | A,,2 x6 | x4 G,2 C2- | C x7 | x4 G,B,B,A, | x6 G,2 | %8
 G,2 x D,2 x3 |] %9

